X:1890
L:1/8
M:6/8
K:G
"^Quick" E/F/ | G2 B{c} BAB | G2 E E2 G | F2 A{B} AGA | F2 D DEF | G2 B{c} BAB | def gfe | 
 dcB{c} BAB | G2 E E2 :: e | d2 B{c} BAB | d2 B B2 g | d2 B{c} BAB | G2 E E2 e | d2 B{c} BAB | 
 def gfe | dcB{c} BAB | G2 E E2 :|

